!!!!SEGMENT: pl-gd--ee-2628--007-004_stabile-annibale--sacrarum-modulationum-multi-ergo.krn
!!!cenid: 15xx:1093
!!!COM: Stabile, Annibale
!!!COM-rismID: pe30009662
!!!CDT: ~1535-1595/04
!!!CNT: Italian
!!!GTL: Sacrarum modulationum
!!!OTL: Multi ergo
!!!OMV: 004
!!!PDT: 1585
!!!AGN:
!!!SMS-siglum: PL-GD
!!!SMS-shelfmark: Ee 2628
!!!SMS-shelfwork: 007-004 G
!!!SMS-variant:
!!!SMS-altvar:
!!!NIFC-rismSourceID: 990060529
!!!NIFC-islandoraID: pl-gd:66139
!!!URL-pdf-islandora: https://repozytorium.nifc.pl/islandora/object/pl-gd%3A66139/datastream/PDF/view
!!!URL-scan: https://polish.musicsources.pl/pl/lokalizacje/galeria/klocki-introligatorskie/673 @EN{Scan on Polish Music Sources Website} @PL{Skany w portalu Dziedzictwo Muzyki Polskiej w otwartym dostępie}
!!!ONB-nifc: UWAGA: Cantus: s. 102-113, Tenore: s. 258-269, Basso: s. 414-425, Quinto: s. 736-747, Sextus: s. 624-632. Dla głosu Alto proszę skorzystać z https://pbc.gda.pl/dlibra/publication/87583/edition/79412/content, s. 25-48. Uwaga: utwory podzielone wg spisu treści dostępnych na końcu ksiąg – proszę sprawdzać sąsiednie tytuły i zwracać uwagę na liczbę głosów. Głosy Quinto i Sextus proszę umieszczać wg ambitusu (może się różnić w zależności od utworu).
!!!AIN: 1 alto 1 bass 1 soprn 1 tenor 1 vox
!!!key: C
**kern	**text	**kern	**text	**kern	**text	**kern	**text	**kern	**text
*part5	*part5	*part4	*part4	*part3	*part3	*part2	*part2	*part1	*part1
*staff5	*staff5	*staff4	*staff4	*staff3	*staff3	*staff2	*staff2	*staff1	*staff1
*I"BASSVS	*	*I"TENOR	*	*I"ALTVS	*	*I"QVINTVS	*	*I"CANTVS	*
*I'B	*	*I'T	*	*I'A	*	*I'V 5	*	*I'S	*
*ICvox	*	*ICvox	*	*ICvox	*	*ICvox	*	*ICvox	*
*Ibass	*	*Itenor	*	*Ialto	*	*Ivox	*	*Isoprn	*
*clefF3	*	*clefC3	*	*clefC2	*	*clefC3	*	*clefG2	*
*k[]	*	*k[]	*	*k[]	*	*k[]	*	*k[]	*
*C:	*	*C:	*	*C:	*	*C:	*	*C:	*
*M2/1	*	*M2/1	*	*M2/1	*	*M2/1	*	*M2/1	*
*met(C|)	*	*met(C|)	*	*met(C|)	*	*met(C|)	*	*met(C|)	*
=1-	=1-	=1-	=1-	=1-	=1-	=1-	=1-	=1-	=1-
!LO:TX:a:t=Tertia Pars.	!	!LO:TX:a:t=Tertia Pars.	!	!LO:TX:a:t=Tertia Pars.	!	!LO:TX:a:t=Tertia Pars.	!	!LO:TX:a:t=Tertia Pars.	!
!	!	!	!	!	!	!	!	!LO:TX:t=P:problem:brak głosu sextus do tego utworu	!
0r	.	1.g	MVl-	1r	.	1r	.	1r	.
.	.	.	.	1.cc	MVl-	1.c	MVl-	1.ee	MVl-
.	.	2g\	-ti	.	.	.	.	.	.
=2-	=2-	=2-	=2-	=2-	=2-	=2-	=2-	=2-	=2-
1.C	MVl-	0.g	er-	.	.	.	.	.	.
.	.	.	.	2cc\	-ti	2c/	-ti	2ee\	-ti
.	.	.	.	0cc	er-	0c	er-	0ee	er-
2C/	-ti	.	.	.	.	.	.	.	.
=3-	=3-	=3-	=3-	=3-	=3-	=3-	=3-	=3-	=3-
1C	er-	.	.	.	.	.	.	.	.
1G	-go	1g	-go	1b	-go	1d	-go	0dd	-go
=4-	=4-	=4-	=4-	=4-	=4-	=4-	=4-	=4-	=4-
1.D	au-	1.f	au-	1.a	au-	1.d	au-	.	.
.	.	.	.	.	.	.	.	1.ff	au-
2D/	-di-	2f\	-di-	2a\	-di-	2d\	-di-	.	.
=5-	=5-	=5-	=5-	=5-	=5-	=5-	=5-	=5-	=5-
1F	-en-	1f	-en-	1a	-en-	4c/	-en-	.	.
.	.	.	.	.	.	4B/	.	.	.
.	.	.	.	.	.	4A/	.	2cc\	-di-
.	.	.	.	.	.	4B/	.	.	.
*	*	*	*	*	*	*	*	*lig	*
2C/	-tes	2e\	-tes	1g	-tes	1c	.	1ee	-en-
1c\	ex	1g\	ex	.	.	.	.	.	.
=6-	=6-	=6-	=6-	=6-	=6-	=6-	=6-	=6-	=6-
.	.	.	.	2r	.	1G	-tes	1dd	.
2B\	diſ-	2d\	diſ-	1g	ex	.	.	.	.
*	*	*	*	*	*	*	*	*Xlig	*
2.c\	-ci-	2.e\	-ci-	.	.	1r	.	1cc	-tes
.	.	.	.	2a\	diſ-	.	.	.	.
4A\	-pu-	4c/	-pu-	.	.	.	.	.	.
=7-	=7-	=7-	=7-	=7-	=7-	=7-	=7-	=7-	=7-
2B\	-lis	2d\	-lis	2.g\	-ci-	0r	.	1r	.
2.c\	e-	2.e\	ſu-	.	.	.	.	.	.
.	.	.	.	4e/	-pu-	.	.	.	.
.	.	.	.	2g\	-lis	.	.	2r	.
4B\	.	4d\	-is	.	.	.	.	.	.
4A\	.	2e\	di-	1a\	e-	.	.	1cc\	ex
4G\	.	.	.	.	.	.	.	.	.
*custos:F	*	*	*	*	*	*	*	*	*
!LO:LB:g=original	!	!	!	!	!	!	!	!	!
=8-	=8-	=8-	=8-	=8-	=8-	=8-	=8-	=8-	=8-
2F/	.	1d	-xe-	.	.	2r	.	.	.
2G\	.	.	.	4g\	.	1g	ex	2b/	diſ-
.	.	.	.	4f\	.	.	.	.	.
1A	.	1c	-runt	2e/	.	.	.	2.cc\	-ci-
.	.	.	.	2c/	-ius	2f\	diſ-	.	.
.	.	.	.	.	.	.	.	4a/	-pu-
*	*	*	*	*custos:d	*	*	*	*	*
!	!	!	!	!LO:LB:g=original	!	!	!	!	!
=9-	=9-	=9-	=9-	=9-	=9-	=9-	=9-	=9-	=9-
2G\	-ius	0r	.	2d/	di-	2.g\	-ci-	2b/	-lis
2c\	di-	.	.	2e/	-xe-	.	.	2.cc\	e-
.	.	.	.	.	.	4e\	-pu-	.	.
*	*	*	*	*	*	*custos:f	*	*	*
!	!	!	!	!	!	!LO:LB:g=original	!	!	!
0A	-xe-	.	.	0c	-runt	2f\	lis	.	.
.	.	.	.	.	.	.	.	4b/	.
.	.	.	.	.	.	2.e\	e-	4a/	.
.	.	.	.	.	.	.	.	4g/	.
*	*	*custos:c	*	*	*	*	*	*custos:a	*
!	!	!LO:LB:g=original	!	!	!	!	!	!LO:LB:g=original	!
=10-	=10-	=10-	=10-	=10-	=10-	=10-	=10-	=10-	=10-
.	.	2r	.	.	.	.	.	4a/	.
.	.	.	.	.	.	4d\	.	4b/	.
.	.	1c	ex	.	.	4e\	.	4cc\	.
.	.	.	.	.	.	4f\	.	4dd\	.
1G	-runt	.	.	1r	.	2.g\	.	2ee\	.
.	.	2B/	diſ-	.	.	.	.	2dd\	-ius
.	.	.	.	.	.	4f\	.	.	.
=11-	=11-	=11-	=11-	=11-	=11-	=11-	=11-	=11-	=11-
2r	.	2.c/	-ci-	00r	.	2e\	.	1.cc	di-
1A	di-	.	.	.	.	2f\	-ius	.	.
.	.	4A/	-pu-	.	.	.	.	.	.
.	.	2c/	lis	.	.	2e\	di-	.	.
4G\	.	2d\	ſu-	.	.	2.g\	-xe-	1b\	-xe-
4F/	.	.	.	.	.	.	.	.	.
=12-	=12-	=12-	=12-	=12-	=12-	=12-	=12-	=12-	=12-
1E	.	2G/	-is	.	.	.	.	.	.
.	.	.	.	.	.	4f\	.	.	.
.	.	1c	di-	.	.	2e\	.	2g/	-runt
1G	-xe-	.	.	.	.	1d	-runt	1r	.
.	.	2B/	-xe-	.	.	.	.	.	.
=13-	=13-	=13-	=13-	=13-	=13-	=13-	=13-	=13-	=13-
1F	-runt	1c	-runt	1a	Du-	2r	.	1cc	du-
.	.	.	.	.	.	1f	Du-	.	.
1r	.	0r	.	1g	-rus	.	.	2b/	-rus
.	.	.	.	.	.	1e\	-rus	2cc\	eſt
=14-	=14-	=14-	=14-	=14-	=14-	=14-	=14-	=14-	=14-
0r	.	.	.	1f	eſt	.	.	1a	hic
.	.	.	.	.	.	1d	eſt	.	.
*	*	*	*	*	*	*	*	*lig	*
.	.	1g	Du-	1e	his	.	.	1cc	fer-
.	.	.	.	.	.	1c\	his	.	.
=15-	=15-	=15-	=15-	=15-	=15-	=15-	=15-	=15-	=15-
1r	.	2f#X\	-rus	1d	fer-	.	.	1dd	.
.	.	1g	eſt	.	.	2B/	fer-	.	.
*	*	*	*	*	*	*	*	*Xlig	*
2r	.	.	.	1c	-mo	1c	-mo	2ee\	-mo
*	*	*	*	*	*	*	*	*	*ij
1A\	du-	2e\	hic	.	.	.	.	1cc\	du-
*	*	*	*	*	*	*custos:c	*	*	*
!	!	!	!	!	!	!LO:LB:g=original	!	!	!
=16-	=16-	=16-	=16-	=16-	=16-	=16-	=16-	=16-	=16-
*	*	*lig	*	*	*ij	*	*	*	*
.	.	1g	fer-	1d	du-	1r	.	.	.
1G	-rus	.	.	.	.	.	.	2b/	-rus
.	.	1.a	.	2e/	-rus	2r	.	2cc\	eſt
*custos:F	*	*	*	*	*	*	*	*	*
!LO:LB:g=original	!	!	!	!	!	!	!	!	!
1F\	eſt	.	.	1f\	eſt	2A/	[et]	2a/	hic
*	*	*Xlig	*	*	*	*	*	*	*
=17-	=17-	=17-	=17-	=17-	=17-	=17-	=17-	=17-	=17-
*	*	*	*	*	*	*	*	*lig	*
.	.	.	.	.	.	2A/	quis	1cc	fer-
2E/	hic	2g	.	2g\	hic	1c	po-	.	.
!	!	!LO:N:vis=1	!	!	!	!	!	!	!
1D	fer-	1.fny\	.	2a\	fer-	.	.	1dd	.
!	!	!LO:N:vis=2	!	!	!	!	!	!	!
.	.	.	.	2d/	-mo	2B/	-teſt	.	.
*	*	*	*	*	*Xij	*	*	*Xlig	*
*	*	*	*	*	*	*	*	*custos:g	*
!	!	!	!	!	!	!	!	!LO:LB:g=original	!
=18-	=18-	=18-	=18-	=18-	=18-	=18-	=18-	=18-	=18-
1C	-mo	.	.	2r	.	1c	e-	1g	-mo
.	.	2e\	-mo	2e/	[et]	.	.	.	.
*	*	*custos:c	*ij	*	*	*	*	*	*Xij
!	!	!LO:LB:g=original	!	!	!	!	!	!	!
1r	.	1c	Du-	2e/	quis	2A/	-um	1r	.
.	.	.	.	1g\	po-	2G/	au-	.	.
*	*	*	*	*custos:f	*	*	*	*	*
!	!	!	!	!LO:LB:g=original	!	!	!	!	!
=19-	=19-	=19-	=19-	=19-	=19-	=19-	=19-	=19-	=19-
0r	.	2B/	-rus	.	.	1A	-di-	2r	.
.	.	1c	eſt	2f\	-teſt	.	.	1cc	Du-
.	.	.	.	1g	e-	1G	-re	.	.
.	.	2d\	hic	.	.	.	.	2b/	-rus
=20-	=20-	=20-	=20-	=20-	=20-	=20-	=20-	=20-	=20-
1r	.	2e\	fer-	2e/	-um	1r	.	2cc\	eſt
.	.	1A	-mo	2c/	au-	.	.	2a/	hic
*	*ij	*	*Xij	*lig	*	*	*	*lig	*
2r	.	.	.	1e	-di-	1g	Du-	1cc	fer-
1c\	du-	2r	.	.	.	.	.	.	.
=21-	=21-	=21-	=21-	=21-	=21-	=21-	=21-	=21-	=21-
.	.	0r	.	1d	.	2f#X\	-rus	1dd	.
2B\	-rus	.	.	.	.	2g\	eſt	.	.
*	*	*	*	*Xlig	*	*	*	*Xlig	*
2c\	eſt	.	.	2c/	re	2e\	his	1ee	-mo
2A\	hic	.	.	1cc\	Du-	1a\	fer-	.	.
=22-	=22-	=22-	=22-	=22-	=22-	=22-	=22-	=22-	=22-
1d	fer-	1r	.	.	.	.	.	2r	.
.	.	.	.	2b\	-rus	4g\	.	1ff	[et]
.	.	.	.	.	.	4fny\	.	.	.
1c	-mo	2r	.	2.cc\	eſt	1g	.	.	.
.	.	1e\	[et]	.	.	.	.	2ee\	quis
.	.	.	.	8b\	.	.	.	.	.
.	.	.	.	8a\	.	.	.	.	.
*	*Xij	*	*	*	*	*	*	*	*
=23-	=23-	=23-	=23-	=23-	=23-	=23-	=23-	=23-	=23-
2r	.	.	.	2g\	.	0c	-mo	1.cc	pot
1A	[et]	2e\	quis	2a\	hic	.	.	.	.
.	.	1f	pot	1a	fer-	.	.	.	.
2A\	quis	.	.	.	.	.	.	2cc\	eſt
=24-	=24-	=24-	=24-	=24-	=24-	=24-	=24-	=24-	=24-
1c	pot	2e\	eſt	1g	-mo	2r	.	1ee	e-
.	.	1g	e-	.	.	2c/	[et]	.	.
2B\	eſt	.	.	1r	.	2G/	quis	2dd\	-um
2c\	e-	2e\	-um	.	.	2g\	pot	2cc\	au-
=25-	=25-	=25-	=25-	=25-	=25-	=25-	=25-	=25-	=25-
2A\	-um	2c/	au-	2r	.	2a\	eſt	1.cc	-di-
2F/	au-	2.f\	-di-	2a\	[et]	2A/	e-	.	.
*	*	*	*	*	*	*custos:c	*	*	*
!	!	!	!	!	!	!LO:LB:g=original	!	!	!
1A	-di-	.	.	2a\	quis	2c/	-um	.	.
.	.	4e\	.	.	.	.	.	.	.
.	.	4e\	.	1cc\	pot	2c/	au-	2a/	-re
.	.	8d\	.	.	.	.	.	.	.
.	.	8c\	.	.	.	.	.	.	.
=26-	=26-	=26-	=26-	=26-	=26-	=26-	=26-	=26-	=26-
1G	-re	1d	.	.	.	0g	-di-	1r	.
.	.	.	.	2b\	eſt	.	.	.	.
2r	.	1c	-re	1cc	e-	.	.	2r	.
*	*ij	*	*	*	*	*	*	*	*
1c\	[et]	.	.	.	.	.	.	2ee\	[et]
=27-	=27-	=27-	=27-	=27-	=27-	=27-	=27-	=27-	=27-
.	.	1r	.	2g\	-um	1e	-re	2ee\	quis
2c\	quis	.	.	2e/	au-	.	.	1gg	pot
2c\	pot	2r	.	1a	-di-	0r	.	.	.
2d\	eſt	2d\	quis	.	.	.	.	2ff#X\	eſt
*custos:B	*	*	*	*	*	*	*ij	*	*
!LO:LB:g=original	!	!	!	!	!	!	!	!	!
=28-	=28-	=28-	=28-	=28-	=28-	=28-	=28-	=28-	=28-
2B\	e-	2d\	pot	1g	-re	.	.	1gg	e-
1c	-um	2e\	eſt	.	.	.	.	.	.
.	.	2g\	e-	2r	.	2r	.	2ee\	-um
*	*	*	*	*	*ij	*	*	*	*
2A\	au-	2.c/	-um	2a\	[et]	1e\	[et]	2cc\	au-
*	*	*	*	*custos:g	*	*	*	*	*
!	!	!	!	!LO:LB:g=original	!	!	!	!	!
=29-	=29-	=29-	=29-	=29-	=29-	=29-	=29-	=29-	=29-
1c	-di-	.	.	2g\	quis	.	.	1ee	-di-
.	.	4d\	.	.	.	.	.	.	.
.	.	4e\	.	1cc	pot	2e\	quis	.	.
.	.	4c/	.	.	.	.	.	.	.
*	*	*custos:d	*	*	*	*	*	*custos:dd	*
!	!	!LO:LB:g=original	!	!	!	!	!	!LO:LB:g=original	!
1G	-re	2d\	.	.	.	1g	pot	2dd\	-re
.	.	2G/	au-	2b\	eſt	.	.	2.dd\	au-
=30-	=30-	=30-	=30-	=30-	=30-	=30-	=30-	=30-	=30-
00r	.	2d\	-di-	2a\	e-	2f#X\	eſt	.	.
.	.	.	.	.	.	.	.	4cc\	.
.	.	2G/	-re	2.g\	-um	2g\	e-	4b/	.
.	.	.	.	.	.	.	.	4a/	.
.	.	1r	.	.	.	2e\	-um	2b/	.
.	.	.	.	4e/	au-	.	.	.	.
.	.	.	.	2.a\	-di-	2c/	au-	2.cc\	-di-
=31-	=31-	=31-	=31-	=31-	=31-	=31-	=31-	=31-	=31-
.	.	0r	.	.	.	1e	-di-	.	.
.	.	.	.	4g\	.	.	.	4b/	.
.	.	.	.	1g	.	.	.	4b/	.
.	.	.	.	.	.	.	.	8a/	.
.	.	.	.	.	.	.	.	8g/	.
.	.	.	.	.	.	1d	-re	1a	.
.	.	.	.	2f#X\	.	.	.	.	.
*	*Xij	*	*	*	*	*	*Xij	*	*
=32-	=32-	=32-	=32-	=32-	=32-	=32-	=32-	=32-	=32-
2r	.	1r	.	0.g	-re	00r	.	0b	-re
1G	Sci-	.	.	.	.	.	.	.	.
.	.	2r	.	.	.	.	.	.	.
2G\	-ens	1d\	Sci-	.	.	.	.	.	.
*	*	*	*	*	*Xij	*	*	*	*
=33-	=33-	=33-	=33-	=33-	=33-	=33-	=33-	=33-	=33-
2G\	au-	.	.	.	.	.	.	0r	.
2G\	-tem	2B/	-ens	.	.	.	.	.	.
1F	Ie-	2c/	au-	0r	.	.	.	.	.
.	.	2d\	-tem	.	.	.	.	.	.
=34-	=34-	=34-	=34-	=34-	=34-	=34-	=34-	=34-	=34-
2.E/	-ſus	1e	Ie-	.	.	00r	.	2r	.
.	.	.	.	.	.	.	.	1gg	Sci-
4F/	.	.	.	.	.	.	.	.	.
0G	.	2d\	-ſus	2r	.	.	.	.	.
.	.	1d\	di-	1b\	Sci-	.	.	2gg\	-ens
=35-	=35-	=35-	=35-	=35-	=35-	=35-	=35-	=35-	=35-
.	.	.	.	.	.	.	.	2gg\	au-
.	.	2e\	-xit	2g\	-ens	.	.	2gg\	-tem
!LO:TX:t=P:problem:Verovio nie wyświetla pauzy	!	!	!	!	!	!	!	!	!
1r	.	1d	e-	2a\	au-	.	.	1ffny	Ie-
.	.	.	.	2b\	-tem	.	.	.	.
=36-	=36-	=36-	=36-	=36-	=36-	=36-	=36-	=36-	=36-
0r	.	0c	-is	1cc	Ie-	2r	.	1ee	-ſus
.	.	.	.	.	.	1g\	Sciens	.	.
.	.	.	.	2g\	-ſus	.	.	2cc\	di-
.	.	.	.	1cc\	di-	2e\	au-	2ee\	-xit
=37-	=37-	=37-	=37-	=37-	=37-	=37-	=37-	=37-	=37-
1r	.	0r	.	.	.	2fny\	-tem	1dd	e-
.	.	.	.	2b\	-xit	2g\	Ie-	.	.
2r	.	.	.	1cc	e-	1a	-ſus	1cc	-is
*	*ij	*	*	*	*	*	*	*	*
1A\	Sci-	.	.	.	.	.	.	.	.
=38-	=38-	=38-	=38-	=38-	=38-	=38-	=38-	=38-	=38-
.	.	2r	.	2a\	-is	2e\	di-	00r	.
2A\	-ens	1e	Sci-	1a	di-	2.c/	.	.	.
2A\	au-	.	.	.	.	.	.	.	.
.	.	.	.	.	.	4d\	.	.	.
2A\	-tem	2c/	-ens	2a\	-xit	4e\	.	.	.
.	.	.	.	.	.	4f\	.	.	.
=39-	=39-	=39-	=39-	=39-	=39-	=39-	=39-	=39-	=39-
1G	Ie-	2d\	au-	1b-X	e-	1g	.	.	.
.	.	2e\	-tem	.	.	.	.	.	.
*	*	*	*	*	*	*custos:c	*	*	*
!	!	!	!	!	!	!LO:LB:g=original	!	!	!
2F/	-ſus	1.f	Ie-	0a	-is	2c/	-xit	.	.
*	*Xij	*	*	*	*	*	*	*	*
4D/	di-	.	.	.	.	1d\	e-	.	.
4E/	.	.	.	.	.	.	.	.	.
*	*	*	*	*custos:g	*	*	*	*	*
!	!	!	!	!LO:LB:g=original	!	!	!	!	!
=40-	=40-	=40-	=40-	=40-	=40-	=40-	=40-	=40-	=40-
4F/	.	.	.	.	.	.	.	2r	.
4G\	.	.	.	.	.	.	.	.	.
4A\	.	2e\	-ſus	.	.	2c/	-is	1ee	Sci-
4B\	.	.	.	.	.	.	.	.	.
*custos:c	*	*	*	*	*	*	*	*	*
!LO:LB:g=original	!	!	!	!	!	!	!	!	!
1.c	.	4A/	di-	2r	.	1r	.	.	.
.	.	4B/	.	.	.	.	.	.	.
.	.	4c/	.	1g\	Sci-	.	.	2ee\	-ens
.	.	4d\	.	.	.	.	.	.	.
*	*	*	*	*	*	*	*	*custos:ee	*
!	!	!	!	!	!	!	!	!LO:LB:g=original	!
=41-	=41-	=41-	=41-	=41-	=41-	=41-	=41-	=41-	=41-
.	.	2e\	.	.	.	00r	.	2ee\	au-
2c\	-xit	2A/	-xit	2e/	-ens	.	.	2ee\	-tem
*	*	*custos:d	*	*	*	*	*	*	*
!	!	!LO:LB:g=original	!	!	!	!	!	!	!
1B-X	e-	2.d\	e-	2fny\	au-	.	.	1dd	Ie-
.	.	.	.	2g\	-tem	.	.	.	.
.	.	4e\	.	.	.	.	.	.	.
=42-	=42-	=42-	=42-	=42-	=42-	=42-	=42-	=42-	=42-
0A	-is	2f\	.	1.a	Ie-	.	.	2cc\	-ſus
.	.	2e\	-is	.	.	.	.	4a/	di-
.	.	.	.	.	.	.	.	4b/	.
.	.	1r	.	.	.	.	.	4cc\	.
.	.	.	.	.	.	.	.	4dd\	.
.	.	.	.	2a\	-ſus	.	.	2.ee\	.
=43-	=43-	=43-	=43-	=43-	=43-	=43-	=43-	=43-	=43-
0r	.	1c	Ver-	2g\	di-	1r	.	.	.
.	.	.	.	.	.	.	.	4dd\	.
.	.	.	.	2e/	-xit	.	.	1cc	.
.	.	1G	-ba	1d	e-	1g	Ver-	.	.
.	.	.	.	.	.	.	.	2b/	-xit
=44-	=44-	=44-	=44-	=44-	=44-	=44-	=44-	=44-	=44-
1F	Ver-	2r	.	2f\	-is	1c	-ba	1a	e-
.	.	2A/	quæ	2f\	di-	.	.	.	.
1C	-ba	1c	e-	2e/	-xit	2r	.	1g	-is
.	.	.	.	4g\	e-	2e\	quæ	.	.
.	.	.	.	4f\	.	.	.	.	.
=45-	=45-	=45-	=45-	=45-	=45-	=45-	=45-	=45-	=45-
2r	.	2c/	-go	4e/	.	1g	e-	0r	.
.	.	.	.	4d/	.	.	.	.	.
2E/	quæ	2c/	lo-	2e/	.	.	.	.	.
1G	e-	2B/	-cu-	0d	-is	2g\	-go	.	.
.	.	2B/	-tus	.	.	2g\	lo-	.	.
=46-	=46-	=46-	=46-	=46-	=46-	=46-	=46-	=46-	=46-
2D/	-go	2A/	ſum	.	.	2f\	-cu-	1r	.
2D/	lo-	2.a\	vo-	.	.	2f\	-tus	.	.
!	!	!	!	!LO:TX:t=P:problem:Verovio nie wyświetla pauzy	!	!	!	!	!
2.A\	-cu-	.	.	1r	.	2e\	ſum	0cc	Ver-
.	.	4g\	.	.	.	.	.	.	.
.	.	1f\	.	.	.	2a\	vo-	.	.
4Bny\	.	.	.	.	.	.	.	.	.
=47-	=47-	=47-	=47-	=47-	=47-	=47-	=47-	=47-	=47-
1c	.	.	.	0r	.	1g	-bis	.	.
.	.	4e\	.	.	.	.	.	.	.
.	.	4d\	.	.	.	.	.	.	.
2c\	-tus	1e	.	.	.	1r	.	1g	-ba
2c\	ſum	.	.	.	.	.	.	.	.
=48-	=48-	=48-	=48-	=48-	=48-	=48-	=48-	=48-	=48-
2.F/	vo-	1c	-bis	1f	Ver-	1.a	vo-	2r	.
.	.	.	.	.	.	.	.	2a/	quæ
4G\	.	.	.	.	.	.	.	.	.
4A\	.	1r	.	2c/	-ba	.	.	1cc	e-
4B\	.	.	.	.	.	.	.	.	.
1c\	.	.	.	2e/	quæ	4g\	.	.	.
.	.	.	.	.	.	4f\	.	.	.
=49-	=49-	=49-	=49-	=49-	=49-	=49-	=49-	=49-	=49-
.	.	0r	.	1g	e-	2e\	.	2cc\	-go
4B\	.	.	.	.	.	2c/	.	2cc\	lo-
4A\	.	.	.	.	.	.	.	.	.
4G\	.	.	.	2g\	-go	1d	-bis	2b/	-cu-
4A\	.	.	.	.	.	.	.	.	.
4B\	.	.	.	2g\	lo-	.	.	2b/	-tus
4c\	.	.	.	.	.	.	.	.	.
*custos:d	*	*	*	*	*	*	*	*	*
!LO:LB:g=original	!	!	!	!	!	!	!	!	!
=50-	=50-	=50-	=50-	=50-	=50-	=50-	=50-	=50-	=50-
1d	.	1r	.	2f\	-cu-	0r	.	2.a/	ſum
.	.	.	.	2f\	-tus	.	.	.	.
.	.	.	.	.	.	.	.	4b/	.
*	*	*	*	*custos:e	*	*	*	*custos:cc	*
!	!	!	!	!LO:LB:g=original	!	!	!	!LO:LB:g=original	!
1c	bis	1g	Ver-	2e/	-ſum	.	.	4cc\	.
.	.	.	.	.	.	.	.	4dd\	.
.	.	.	.	4c/	vo-	.	.	4ee\	.
.	.	.	.	4d/	.	.	.	4ff\	.
=51-	=51-	=51-	=51-	=51-	=51-	=51-	=51-	=51-	=51-
00r	.	1c	-ba	4e/	.	00r	.	2.gg\	.
.	.	.	.	4f\	.	.	.	.	.
.	.	.	.	4g\	.	.	.	.	.
.	.	.	.	4a\	.	.	.	8ff\	.
.	.	.	.	.	.	.	.	8ee\	.
.	.	2r	.	4bny\	.	.	.	2dd\	.
.	.	.	.	4g\	.	.	.	.	.
.	.	2e\	quæ	1cc\	.	.	.	2ee\	vo-
=52-	=52-	=52-	=52-	=52-	=52-	=52-	=52-	=52-	=52-
.	.	1g	e-	.	.	.	.	0dd	-bis
.	.	.	.	4b\	.	.	.	.	.
.	.	.	.	4a\	.	.	.	.	.
*	*	*custos:g	*	*lig	*	*	*	*	*
!	!	!LO:LB:g=original	!	!	!	!	!	!	!
.	.	2g\	-go	1b	.	.	.	.	.
.	.	2g\	lo-	.	.	.	.	.	.
=53-	=53-	=53-	=53-	=53-	=53-	=53-	=53-	=53-	=53-
00r	.	2f\	-cu-	1a	.	2r	.	2r	.
.	.	2f\	-tus	.	.	2A/	quæ	2cc\	quę
*	*	*	*	*Xlig	*	*	*	*	*
.	.	2e\	-ſum	0g	-bis	1c	e-	1ee	e-
.	.	4c/	vo-	.	.	.	.	.	.
.	.	4d\	.	.	.	.	.	.	.
*	*	*	*	*	*	*custos:c	*	*	*
!	!	!	!	!	!	!LO:LB:g=original	!	!	!
=54-	=54-	=54-	=54-	=54-	=54-	=54-	=54-	=54-	=54-
.	.	4e\	.	.	.	2c/	-go	2ee\	-go
.	.	4f\	.	.	.	.	.	.	.
.	.	2.g\	.	.	.	2c/	lo-	2ee\	lo-
.	.	.	.	1r	.	2B/	-cu-	2dd\	-cu-
.	.	8f\	.	.	.	.	.	.	.
.	.	8e\	.	.	.	.	.	.	.
.	.	4d\	.	.	.	2B/	-tus	2dd\	-tus
.	.	4e\	.	.	.	.	.	.	.
=55-	=55-	=55-	=55-	=55-	=55-	=55-	=55-	=55-	=55-
0r	.	4f\	.	1a	Ver-	2A/	-ſum	0cc	-ſum
.	.	4e\	.	.	.	.	.	.	.
.	.	1f	.	.	.	4F/	vo-	.	.
.	.	.	.	.	.	4G/	.	.	.
.	.	.	.	2a\	-ba	4A/	.	.	.
.	.	.	.	.	.	4B/	.	.	.
.	.	2e\	.	2g\	quæ	1c\	.	.	.
=56-	=56-	=56-	=56-	=56-	=56-	=56-	=56-	=56-	=56-
1G	Ver-	1d	-bis	0g	e-	.	.	1dd	vo-
.	.	.	.	.	.	2B/	.	.	.
1C	-ba	2r	.	.	.	1c	-bis	2ee\	-bis
.	.	2e\	Ver-	.	.	.	.	1cc\	quae
=57-	=57-	=57-	=57-	=57-	=57-	=57-	=57-	=57-	=57-
2r	.	2c/	-ba	1g	-go	1r	.	.	.
2E/	quæ	2e\	quę	.	.	.	.	4b/	.
.	.	.	.	.	.	.	.	4a/	.
1G	e-	2.d\	e-	1g	lo-	2r	.	1b	.
.	.	.	.	.	.	2B/	quę	.	.
.	.	4c/	.	.	.	.	.	.	.
=58-	=58-	=58-	=58-	=58-	=58-	=58-	=58-	=58-	=58-
2G\	-go	2B/	.	2g\	-cu-	1d	e-	1b	e-
2G\	lo-	2G/	-go	4d/	-tus	.	.	.	.
.	.	.	.	4e/	.	.	.	.	.
2F/	-cu-	1A	lo-	4f\	.	2d\	-go	1a	-go
.	.	.	.	4g\	.	.	.	.	.
2F/	-tus	.	.	4a\	.	2d\	lo-	.	.
.	.	.	.	4f\	.	.	.	.	.
*	*	*custos:e	*	*custos:g	*	*	*	*	*
!	!	!LO:LB:g=original	!	!LO:LB:g=original	!	!	!	!	!
=59-	=59-	=59-	=59-	=59-	=59-	=59-	=59-	=59-	=59-
2E/	-ſum	2.e\	-cu-	1.g	.	2c/	-cu-	2r	.
4C/	vo-	.	.	.	.	2c/	-tus	2ee\	lo-
4D/	.	4f\	.	.	.	.	.	.	.
*	*	*	*	*	*	*	*	*custos:ee	*
!	!	!	!	!	!	!	!	!LO:LB:g=original	!
4E/	.	2g\	.	.	.	1B	-ſum	1ee	-cu-
4F/	.	.	.	.	.	.	.	.	.
4G\	.	2G/	-tus	2g\	-ſum	.	.	.	.
4E/	.	.	.	.	.	.	.	.	.
=60-	=60-	=60-	=60-	=60-	=60-	=60-	=60-	=60-	=60-
1F	.	2c/	-ſum	1a	vo-	1A	vo-	2cc\	-tus
.	.	2d\	vo-	.	.	.	.	2ff\	-ſum
1C	-bis	0e	-bis	1g	-bis	1c	-bis	1ee	vo-
=61-	=61-	=61-	=61-	=61-	=61-	=61-	=61-	=61-	=61-
00r	.	.	.	2.g\	Spi-	2.c/	Spi-	1cc	-bis
.	.	.	.	4a\	-ri-	4A/	-ri-	.	.
.	.	0r	.	2g\	-tus	2B/	-tus	0r	.
.	.	.	.	2e/	[et]	2c/	[et]	.	.
*	*	*	*	*	*	*custos:A	*	*	*
!	!	!	!	!	!	!LO:LB:g=original	!	!	!
=62-	=62-	=62-	=62-	=62-	=62-	=62-	=62-	=62-	=62-
.	.	.	.	2f\	vi-	2A/	vi-	.	.
.	.	.	.	2d/	-ta	2B/	-ta	.	.
.	.	2.g\	Spi-	1c	ſunt	1c	ſunt	2.ee\	Spi-
.	.	4a\	-ri-	.	.	.	.	4cc\	-ri-
=63-	=63-	=63-	=63-	=63-	=63-	=63-	=63-	=63-	=63-
0r	.	2g\	-tus	2r	.	0r	.	2dd\	-tus
.	.	2e\	[et]	2.cc\	Spi-	.	.	2ee\	[et]
.	.	2f\	vi-	.	.	.	.	2cc\	vi-
.	.	.	.	4a\	-ri-	.	.	.	.
.	.	2d\	-ta	2b\	-tus	.	.	2dd\	-ta
=64-	=64-	=64-	=64-	=64-	=64-	=64-	=64-	=64-	=64-
*	*	*	*	*	*	*	*ij	*	*
2.A\	Spi-	1c	ſunt	2cc\	[et]	2.e\	Spi-	2ee\	ſunt
.	.	.	.	2a\	vi-	.	.	2cc\	[et]
4F/	-ri-	.	.	.	.	4f\	-ri-	.	.
2G\	-tus	0r	.	2g\	-ta	2d\	-tus	4b/	vi-
.	.	.	.	.	.	.	.	8a/	.
.	.	.	.	.	.	.	.	8b/	.
2A\	[et]	.	.	4f\	.	2c/	[et]	1cc\	.
.	.	.	.	4e/	.	.	.	.	.
*custos:F	*	*	*ij	*	*	*	*	*	*
!LO:LB:g=original	!	!	!	!	!	!	!	!	!
=65-	=65-	=65-	=65-	=65-	=65-	=65-	=65-	=65-	=65-
2F/	vi-	.	.	2a\	.	2d\	vi-	.	.
2G\	-ta	.	.	2g\	ſunt	2d\	-ta	2b/	-ta
1A	ſunt	2.e\	Spi-	2r	.	1c	ſunt	1cc	ſunt
*	*	*	*	*	*ij	*	*	*	*
.	.	.	.	2.a\	Spi-	.	.	.	.
.	.	4c/	-ri-	.	.	.	.	.	.
=66-	=66-	=66-	=66-	=66-	=66-	=66-	=66-	=66-	=66-
2r	.	2d\	-tus	.	.	0r	.	2r	.
.	.	.	.	4f\	-ri-	.	.	.	.
*	*	*	*	*	*	*	*	*	*ij
2.c\	Spi-	2e\	[et]	2g\	-tus	.	.	2.ee\	Spi-
*	*	*	*	*custos:a	*	*	*	*	*
!	!	!	!	!LO:LB:g=original	!	!	!	!	!
.	.	2f\	vi-	2a\	[et]	.	.	.	.
4A\	-ri-	.	.	.	.	.	.	4cc\	-ri-
2B\	-tus	2d\	-ta	1g\	vi-	.	.	2dd\	-tus
=67-	=67-	=67-	=67-	=67-	=67-	=67-	=67-	=67-	=67-
2c\	[et]	1c	ſunt	.	.	1r	.	2ee\	[et]
2.A\	vi-	.	.	2f\	-ta	.	.	1cc	vi-
.	.	1r	.	1e	ſunt	2r	.	.	.
8G\	.	.	.	.	.	.	.	.	.
8F\	.	.	.	.	.	.	.	.	.
2G\	.	.	.	.	.	2.e\	Spi-	2b/	-ta
*	*	*	*	*	*Xij	*	*	*custos:cc	*
!	!	!	!	!	!	!	!	!LO:LB:g=original	!
=68-	=68-	=68-	=68-	=68-	=68-	=68-	=68-	=68-	=68-
2A\	.	2.a\	Spi-	0r	.	.	.	2.cc\	ſunt
.	.	.	.	.	.	4c/	-ri-	.	.
2F/	-ta	.	.	.	.	2d\	-tus	.	.
.	.	4f\	-ri-	.	.	.	.	8b/	[et]
.	.	.	.	.	.	.	.	8a/	vi-
*	*	*custos:g	*	*	*	*	*	*	*
!	!	!LO:LB:g=original	!	!	!	!	!	!	!
2E/	ſunt	2g\	-tus	.	.	2e\	[et]	4cc\	.
.	.	.	.	.	.	.	.	4b/	.
*	*ij	*	*	*	*	*	*	*	*
2.F/	Spi-	1f\	[et]	.	.	2c/	vi-	1a/	.
=69-	=69-	=69-	=69-	=69-	=69-	=69-	=69-	=69-	=69-
.	.	.	.	1r	.	2d\	-ta	.	.
4D/	-ri-	.	.	.	.	.	.	.	.
2E/	-tus	4e\	vi-	.	.	2B/	ſunt	2g/	-ta
.	.	4d\	.	.	.	.	.	.	.
2F/	[et]	2c/	.	2r	.	1A	[et]	2a/	ſunt
*	*	*	*	*	*	*	*Xij	*	*Xij
1D/	vi-	2d\	.	2.a\	Spi-	.	.	2.ff\	Spi-
=70-	=70-	=70-	=70-	=70-	=70-	=70-	=70-	=70-	=70-
.	.	2A/	-ta	.	.	2r	.	.	.
.	.	.	.	4f\	-ri-	.	.	4dd\	-ri-
2C/	-ta	2e\	ſunt	2g\	-tus	2.c/	Spi-	2ee\	-tus
2F/	ſunt	1r	.	2a\	[et]	.	.	2ff\	[et]
.	.	.	.	.	.	4A/	-ri-	.	.
*	*Xij	*	*Xij	*	*	*	*	*lig	*
*	*	*	*	*	*	*	*	*col	*
2G\	[et]	.	.	4g\	vi-	2B/	-tus	1ee\	vi-
.	.	.	.	4f\	.	.	.	.	.
*	*	*	*	*	*	*custos:c	*	*	*
!	!	!	!	!	!	!LO:LB:g=original	!	!	!
=71-	=71-	=71-	=71-	=71-	=71-	=71-	=71-	=71-	=71-
2A\	vi-	0r	.	2e/	.	2c/	[et]	.	.
2B\	-ta	.	.	2g\	-ta	4d\	vi-	2.dd\	.
.	.	.	.	.	.	4e\	.	.	.
1A	ſunt	.	.	1a	ſunt	4f\	.	.	.
*	*	*	*	*	*	*	*	*Xlig	*
*	*	*	*	*	*	*	*	*Xcol	*
.	.	.	.	.	.	4e\	.	4cc\	.
.	.	.	.	.	.	4e\	.	1cc\	.
.	.	.	.	.	.	8d\	.	.	.
.	.	.	.	.	.	8c\	.	.	.
=72-	=72-	=72-	=72-	=72-	=72-	=72-	=72-	=72-	=72-
1r	.	2.f\	Spi-	1r	.	2d\	.	.	.
.	.	.	.	.	.	2d\	-ta	2b/	-ta
.	.	4d\	-ri-	.	.	.	.	.	.
*custos:F	*	*	*	*	*ij	*	*	*	*
!LO:LB:g=original	!	!	!	!	!	!	!	!	!
2r	.	2e\	-tus	2r	.	1c	ſunt	1cc	ſunt
2.F/	Spi-	2f\	[et]	2.a\	Spi-	.	.	.	.
=73-	=73-	=73-	=73-	=73-	=73-	=73-	=73-	=73-	=73-
.	.	2d\	vi-	.	.	2r	.	2r	.
4D/	-ri-	.	.	4f\	-ri-	.	.	.	.
*	*	*	*	*	*	*	*ij	*	*
1E	-tus	2G/	-ta	1g	-tus	2.e\	Spi-	2.ee\	Spi-
.	.	2.c/	Spi-	.	.	.	.	.	.
.	.	.	.	.	.	4g\	-ri-	4ee\	-ri-
2F/	[et]	.	.	2a\	[et]	1f\	-tus	2a/	-tus
.	.	4A/	-ri-	.	.	.	.	.	.
=74-	=74-	=74-	=74-	=74-	=74-	=74-	=74-	=74-	=74-
1.G	vi-	2B/	-tus	1.g	vi-	.	.	2dd\	[et]
.	.	2c/	[et]	.	.	2e\	[et]	1cc	vi-
.	.	2d\	vi-	.	.	2d\	vi-	.	.
2G\	-ta	2d\	-ta	2f\	-ta	2d\	-ta	2b/	-ta
=75-	=75-	=75-	=75-	=75-	=75-	=75-	=75-	=75-	=75-
00C	ſunt.	00c	ſunt.	00g	ſunt	00e	ſunt	00cc	ſunt.
==	==	==	==	==	==	==	==	==	==
*-	*-	*-	*-	*-	*-	*-	*-	*-	*-
!!!system-decoration: [(s1,s2,s3,s4,s5)]
!!!ENC: Filip Voros
!!!END: 2022-07-14
!!!ENC: Jan Barakat
!!!END: 2022-08-05
